lib/logo_tmp/nrk-logo-nrk-sami-radio-title-below-on-light.svg

<svg width="83" height="41" viewBox="0 0 83 41" fill="none" xmlns="http://www.w3.org/2000/svg">
<path d="M0 17.9966V5.99767H3.93719V17.9966H0ZM9.29381 7.90736L11.5581 17.9966H7.24917L4.54549 5.99767H6.96218C7.51635 5.99048 8.05406 6.18583 8.4745 6.54697C8.89562 6.89296 9.18495 7.37328 9.29381 7.90736ZM12.1495 17.9966V5.99767H16.0867V17.9966H12.1495ZM19.0605 10.5607C18.6362 10.5648 18.2188 10.4538 17.8525 10.2395C17.4912 10.0307 17.1911 9.73054 16.9823 9.36918C16.7678 9.00291 16.6568 8.58534 16.661 8.1609C16.6561 7.73904 16.7672 7.32396 16.9823 6.96101C17.1933 6.60357 17.4931 6.30668 17.8525 6.0991C18.2189 5.88508 18.6362 5.7741 19.0605 5.77797C19.4822 5.77342 19.8971 5.88451 20.2602 6.0991C20.616 6.30849 20.9127 6.60514 21.122 6.96101C21.3368 7.32406 21.4479 7.73908 21.4433 8.1609C21.4473 8.58531 21.3363 9.00281 21.122 9.36918C20.9149 9.72896 20.6179 10.0289 20.2602 10.2395C19.8971 10.4546 19.4819 10.5657 19.0599 10.5607H19.0605ZM22.0516 17.9966V5.99767H25.9892V17.9966H22.0516ZM30.9737 12.5548C30.9848 12.5665 31.0693 12.7045 31.2272 12.9689C31.3851 13.2332 31.5907 13.5713 31.8439 13.9829C32.0974 14.3943 32.3649 14.8308 32.6463 15.2926C32.9278 15.7543 33.1926 16.1909 33.4408 16.6024C33.6881 17.0138 33.9697 17.4785 34.2857 17.9966H29.9598C29.6893 17.5572 29.4441 17.16 29.2245 16.8051C29.0048 16.4503 28.7713 16.0672 28.5238 15.6559C28.2758 15.2451 28.0306 14.8451 27.7882 14.456C27.5458 14.067 27.3375 13.7262 27.1633 13.4336C26.9883 13.1409 26.8671 12.9437 26.7997 12.8421C26.6325 12.59 26.5336 12.2989 26.5127 11.9971C26.5294 11.7075 26.6226 11.4276 26.7828 11.1857C26.8504 11.073 26.9743 10.873 27.1545 10.5857C27.3348 10.2984 27.546 9.95764 27.7882 9.56331C28.0304 9.16898 28.2756 8.76619 28.5238 8.35496C28.772 7.94373 29.0056 7.55782 29.2245 7.19729C29.4445 6.83713 29.6897 6.43717 29.9598 5.9974H34.2857L30.9396 11.4561C30.8361 11.6181 30.7777 11.8049 30.7706 11.9971C30.7818 12.1989 30.8522 12.3929 30.9731 12.5548H30.9737Z" fill="#0A2343"/>
<path d="M8.02553 30.2394C8.1652 30.6588 8.23183 31.0992 8.22252 31.5412C8.24184 32.1346 8.12156 32.7243 7.87136 33.2628C7.64424 33.7174 7.30162 34.1043 6.87784 34.3847C6.42375 34.6812 5.91834 34.8903 5.38756 35.0014C4.78814 35.1305 4.1764 35.1937 3.56325 35.1898C3.28918 35.1898 3.01796 35.1784 2.7496 35.1556C2.48123 35.1327 2.21287 35.1013 1.9445 35.0614C1.66472 35.0191 1.3874 34.9619 1.11371 34.8901C0.81219 34.811 0.51489 34.7167 0.222971 34.6074L0 32.9116C0.274074 33.0144 0.562519 33.1144 0.865333 33.2116C1.16815 33.3089 1.47924 33.3916 1.79861 33.4597C2.11799 33.5283 2.43774 33.5825 2.75787 33.6225C3.06465 33.6618 3.37359 33.6818 3.68288 33.6824C4.0011 33.6852 4.31903 33.6623 4.63357 33.6139C4.89117 33.575 5.14202 33.5001 5.37871 33.3912C5.58815 33.294 5.77489 33.154 5.92686 32.9801C6.07822 32.8039 6.19451 32.6004 6.26945 32.3806C6.35372 32.1266 6.39436 31.8602 6.38965 31.5926C6.39577 31.3411 6.35211 31.0909 6.26117 30.8563C6.18284 30.6615 6.06301 30.4862 5.91002 30.3424C5.74862 30.1969 5.56684 30.0757 5.37043 29.9827C5.1417 29.8736 4.90383 29.7847 4.65955 29.7172C4.39671 29.6433 4.11121 29.572 3.80307 29.5031C3.42584 29.4235 3.05755 29.3264 2.69821 29.2119C2.35302 29.1038 2.01776 28.9663 1.69612 28.8008C1.39271 28.6446 1.11534 28.4424 0.873898 28.2012C0.629814 27.955 0.44015 27.6603 0.317184 27.3362C0.177318 26.9493 0.110522 26.5398 0.120193 26.1285C0.106875 25.5972 0.215272 25.0699 0.437092 24.5869C0.644857 24.157 0.956855 23.7859 1.34468 23.5074C1.76566 23.2096 2.23943 22.9945 2.74075 22.8736C3.32939 22.7305 3.9336 22.6614 4.53936 22.6681C4.83627 22.6681 5.12738 22.6823 5.41269 22.7109C5.69462 22.739 5.97488 22.7819 6.25232 22.8394C6.5264 22.8965 6.79752 22.9651 7.0657 23.0452C7.32923 23.1231 7.58461 23.2264 7.82825 23.3535L7.58844 24.8609C7.37181 24.7418 7.14534 24.6415 6.91153 24.5612C6.66198 24.4745 6.40743 24.403 6.14926 24.347C5.88354 24.2896 5.61487 24.2467 5.34445 24.2186C5.077 24.1905 4.80828 24.1762 4.53936 24.1758C4.24423 24.174 3.94937 24.1941 3.65718 24.2357C3.41146 24.2692 3.17196 24.3384 2.9463 24.4413C2.74911 24.5329 2.56713 24.6542 2.40672 24.801C2.25191 24.9448 2.13434 25.1241 2.06412 25.3234C1.98642 25.5493 1.94874 25.787 1.95278 26.0258C1.94714 26.2563 1.98491 26.4858 2.06412 26.7024C2.13531 26.8866 2.24989 27.0509 2.39815 27.1814C2.55571 27.3191 2.73152 27.4344 2.92061 27.524C3.14056 27.6285 3.37 27.7117 3.60579 27.7724C3.86274 27.8409 4.13957 27.9094 4.4363 27.978C4.82457 28.0581 5.20142 28.1552 5.56685 28.2692C5.92351 28.3799 6.27027 28.5202 6.60348 28.6888C6.92124 28.849 7.21057 29.0602 7.45996 29.3141C7.71319 29.5778 7.90607 29.8934 8.02524 30.2391M17.9519 33.9051C18.0511 33.892 18.1487 33.8691 18.2434 33.8366L18.0549 34.9843C17.9908 35.0092 17.9248 35.0292 17.8577 35.0442C17.7832 35.0614 17.7006 35.0811 17.6093 35.1042C17.5166 35.1269 17.4221 35.1413 17.3269 35.147C17.2296 35.1524 17.1297 35.1556 17.0269 35.1556C16.6927 35.1615 16.3607 35.1003 16.0505 34.9757C15.7699 34.8602 15.5351 34.6555 15.3824 34.3933C15.2929 34.2366 15.2302 34.0661 15.1969 33.8888C15.0911 34.0144 14.9786 34.1342 14.86 34.2477C14.5478 34.5434 14.1815 34.7761 13.7811 34.9329C13.3178 35.1025 12.8269 35.1839 12.3336 35.1727C11.8071 35.1911 11.2848 35.0731 10.8174 34.8301C10.4343 34.6242 10.119 34.3119 9.90951 33.9308C9.70976 33.5598 9.60676 33.1445 9.61002 32.7232C9.60774 32.2741 9.74206 31.835 9.99515 31.4641C10.2938 31.0475 10.6992 30.719 11.1688 30.5134C11.7963 30.2384 12.471 30.0871 13.1559 30.0681L15.158 29.9325L15.1597 29.5028C15.1646 29.2111 15.13 28.9201 15.057 28.6377C14.9975 28.4087 14.8794 28.1992 14.7144 28.0296C14.5287 27.8557 14.3019 27.7319 14.0552 27.6699C13.7168 27.583 13.3681 27.5427 13.0188 27.55C12.7904 27.55 12.5591 27.5586 12.3248 27.5757C12.0862 27.5934 11.8489 27.6249 11.6139 27.6699C11.3741 27.716 11.1258 27.7731 10.8691 27.8412C10.6123 27.9094 10.341 27.995 10.0551 28.0982L10.261 26.6421C10.5547 26.5251 10.8548 26.425 11.16 26.3424C11.4892 26.2537 11.8241 26.1879 12.1623 26.1454C12.5201 26.0994 12.8805 26.0766 13.2412 26.0769C13.6961 26.0719 14.1501 26.1179 14.5948 26.2139C14.9582 26.2914 15.3077 26.4243 15.6308 26.6079C15.9091 26.7676 16.1513 26.9833 16.342 27.2414C16.5304 27.5056 16.6696 27.8016 16.7528 28.1153C16.8476 28.4729 16.8938 28.8416 16.8901 29.2116L16.8556 32.7403C16.819 33.0553 16.8852 33.3738 17.0443 33.6482C17.1253 33.7443 17.2283 33.8194 17.3446 33.8671C17.4608 33.9148 17.5869 33.9337 17.7121 33.9222C17.7923 33.9214 17.8724 33.9157 17.9519 33.9051ZM15.1446 32.8816L15.1523 31.1815H13.6526C13.2031 31.1693 12.7539 31.2154 12.3162 31.3185C12.0361 31.3787 11.7834 31.5292 11.5971 31.7468C11.4359 31.9831 11.3575 32.2662 11.3741 32.5519C11.3673 32.7889 11.4266 33.0232 11.5454 33.2285C11.6653 33.4221 11.8415 33.5745 12.0504 33.6653C12.3074 33.7748 12.5851 33.8274 12.8644 33.8195C13.1087 33.8201 13.3525 33.7972 13.5924 33.7509C13.8238 33.7062 14.0484 33.6313 14.2604 33.5283C14.4733 33.4246 14.6743 33.2982 14.86 33.1514C14.9627 33.0699 15.0583 32.9796 15.1455 32.8816M15.948 22H14.0977L12.6417 25.0662H13.9778L15.948 22ZM31.7073 26.4366C31.2401 26.183 30.7137 26.0588 30.1825 26.0769C29.7215 26.0756 29.2638 26.1538 28.8295 26.3081C28.3882 26.4661 27.9727 26.6882 27.5962 26.9673C27.3827 27.1253 27.1796 27.297 26.9883 27.4812C26.8128 27.0524 26.5032 26.6918 26.1059 26.4534C25.6331 26.1986 25.1009 26.0744 24.5642 26.0937C24.1062 26.0938 23.6516 26.1719 23.2198 26.3247C22.7766 26.4806 22.3583 26.7 21.9779 26.9759C21.8546 27.0647 21.7355 27.1609 21.6179 27.2614V26.094L19.871 26.3509V35.0014H21.6179V28.4859C21.8238 28.3511 22.0384 28.2302 22.2603 28.1239C22.5321 27.9954 22.8163 27.8949 23.1085 27.8241C23.3774 27.7576 23.6532 27.7231 23.9301 27.7213C24.1845 27.7137 24.4378 27.7574 24.675 27.8498C24.8714 27.9329 25.0448 28.0622 25.1806 28.2266C25.3294 28.4175 25.4319 28.6404 25.4801 28.8776C25.547 29.1841 25.5787 29.4974 25.5746 29.8111V35.0014H27.3218V29.4514C27.323 29.1237 27.3009 28.7964 27.2556 28.4719C27.4537 28.3418 27.6588 28.2228 27.87 28.1153C28.137 27.9808 28.4187 27.8773 28.7093 27.807C28.984 27.7397 29.2656 27.7052 29.5484 27.7042C29.8001 27.6981 30.0505 27.7418 30.2852 27.8326C30.4849 27.9141 30.6614 28.0435 30.7991 28.2095C30.9481 28.4003 31.0507 28.6232 31.0989 28.8604C31.1657 29.167 31.1973 29.4802 31.1931 29.794V35.0014H32.9403V29.4343C32.9625 28.7864 32.8578 28.1405 32.632 27.5329C32.4544 27.0747 32.129 26.6889 31.7073 26.4366ZM37.0258 22.5053C36.848 22.3966 36.6431 22.3402 36.4348 22.3426C36.2238 22.341 36.0164 22.3972 35.8352 22.5053C35.6565 22.6098 35.5064 22.7569 35.3984 22.9336C35.2898 23.1114 35.2334 23.3162 35.2357 23.5245C35.2352 23.7337 35.2905 23.9392 35.3959 24.1198C35.5013 24.3005 35.653 24.4498 35.8352 24.5523C36.0181 24.6553 36.2249 24.7085 36.4348 24.7065C36.642 24.7091 36.8462 24.6559 37.0258 24.5523C37.2021 24.4505 37.3472 24.3024 37.4454 24.1241C37.5484 23.9412 37.6016 23.7344 37.5996 23.5245C37.6021 23.3173 37.5489 23.1132 37.4454 22.9336C37.3438 22.7578 37.1995 22.6105 37.0258 22.5053ZM35.5269 35.0014H37.2741V26.094L35.5269 26.3509V35.0014ZM47.5691 26.205C47.2486 26.2911 46.9426 26.4238 46.6609 26.599C46.3688 26.7814 46.0987 26.997 45.8561 27.2414C45.8155 27.2819 45.7762 27.327 45.7359 27.3699V26.094L43.989 26.3509V35.0014H45.7362V28.5298C45.866 28.4391 46.0004 28.3551 46.1387 28.278C46.31 28.1835 46.4874 28.1006 46.6698 28.0296C46.8466 27.9611 47.0264 27.9012 47.2093 27.8498C47.3974 27.7974 47.5894 27.7602 47.7835 27.7384C47.991 27.7157 48.2 27.7099 48.4084 27.7213L48.614 26.1108C48.263 26.0859 47.9102 26.1177 47.5693 26.205M57.6413 33.9051C57.7403 33.892 57.8378 33.8691 57.9322 33.8366L57.7438 34.9843C57.6798 35.0092 57.6141 35.0293 57.5471 35.0442C57.4726 35.0614 57.3898 35.0811 57.2987 35.1042C57.2059 35.1269 57.1112 35.1413 57.0158 35.147C56.919 35.1524 56.8191 35.1556 56.7163 35.1556C56.3821 35.1615 56.0501 35.1003 55.7399 34.9757C55.4593 34.8603 55.2245 34.6556 55.0718 34.3933C54.9822 34.2367 54.9195 34.0662 54.8863 33.8888C54.7803 34.0143 54.6679 34.134 54.5494 34.2477C54.2371 34.5433 53.8706 34.776 53.4702 34.9329C53.0069 35.1026 52.5158 35.1839 52.0225 35.1727C51.4962 35.1911 50.974 35.0731 50.5068 34.8301C50.1237 34.6243 49.8083 34.312 49.5989 33.9308C49.399 33.5599 49.2958 33.1445 49.2989 32.7232C49.2965 32.274 49.4311 31.8349 49.6846 31.4641C49.9829 31.0473 50.3883 30.7188 50.8579 30.5134C51.4854 30.2383 52.1601 30.0871 52.845 30.0681L54.8472 29.9325L54.8492 29.5028C54.8539 29.2111 54.8193 28.9201 54.7461 28.6377C54.6869 28.4086 54.5688 28.199 54.4035 28.0296C54.2177 27.8557 53.9906 27.7319 53.7437 27.6699C53.4054 27.583 53.0569 27.5426 52.7077 27.55C52.4793 27.55 52.248 27.5586 52.0139 27.5757C51.7753 27.5934 51.538 27.6249 51.303 27.6699C51.0632 27.716 50.8147 27.7731 50.5576 27.8412C50.3005 27.9094 50.0294 27.995 49.7442 28.0982L49.9495 26.6421C50.2434 26.5251 50.5438 26.425 50.8491 26.3424C51.1782 26.2537 51.513 26.1879 51.8512 26.1454C52.2091 26.0994 52.5695 26.0765 52.9304 26.0769C53.3851 26.0719 53.839 26.1179 54.2836 26.2139C54.6472 26.2914 54.9967 26.4243 55.3199 26.6079C55.5981 26.7675 55.8401 26.9833 56.0305 27.2414C56.2192 27.5055 56.3587 27.8016 56.4422 28.1153C56.5367 28.4729 56.5827 28.8417 56.579 29.2116L56.545 32.7403C56.5084 33.0553 56.5744 33.3737 56.7331 33.6482C56.8143 33.7442 56.9174 33.8193 57.0337 33.867C57.1501 33.9147 57.2762 33.9337 57.4015 33.9222C57.4817 33.9214 57.5618 33.9157 57.6413 33.9051ZM54.834 32.8816L54.8414 31.1815H53.3415C52.8921 31.1693 52.4431 31.2154 52.0056 31.3185C51.7199 31.363 51.4624 31.5162 51.2868 31.746C51.1113 31.9758 51.0313 32.2645 51.0635 32.5519C51.0568 32.7889 51.1161 33.0232 51.2348 33.2285C51.355 33.4221 51.5314 33.5745 51.7404 33.6653C51.9973 33.7749 52.2749 33.8275 52.5541 33.8195C52.7983 33.8201 53.042 33.7972 53.2818 33.7509C53.5133 33.7063 53.7379 33.6314 53.9499 33.5283C54.1627 33.4246 54.3637 33.2983 54.5494 33.1514C54.6521 33.0698 54.7476 32.9795 54.8349 32.8816M65.5035 22.3255L67.2505 22.0856V35.0014H65.8293L65.614 34.2094C65.4858 34.3025 65.3571 34.391 65.2292 34.4704C64.8592 34.7024 64.4584 34.8812 64.0387 35.0014C63.6175 35.1175 63.1825 35.1752 62.7456 35.1727C62.0333 35.1926 61.3297 35.0116 60.7155 34.6503C60.1447 34.2959 59.6917 33.7803 59.4139 33.1685C59.0952 32.4523 58.94 31.674 58.9597 30.8903C58.9312 29.9824 59.1377 29.0826 59.5592 28.278C59.92 27.6078 60.4567 27.0486 61.1117 26.6607C61.7666 26.2729 62.5149 26.071 63.2761 26.0769C63.6757 26.0736 64.0746 26.1109 64.4666 26.1882C64.8021 26.2557 65.1316 26.3502 65.4518 26.4708C65.4695 26.4777 65.4858 26.486 65.5032 26.4928L65.5035 22.3255ZM65.5035 33.0866V27.807C65.4139 27.7741 65.3217 27.7387 65.238 27.7122C64.9778 27.6285 64.7113 27.5655 64.4412 27.5237C64.169 27.4831 63.8942 27.463 63.619 27.4638C63.0844 27.4492 62.5555 27.5763 62.0859 27.8321C61.6541 28.0816 61.3101 28.4586 61.1009 28.9112C60.8555 29.4691 60.7384 30.075 60.7583 30.6842C60.7393 31.2788 60.8443 31.871 61.0667 32.4228C61.244 32.853 61.5566 33.2138 61.9571 33.4506C62.3878 33.6838 62.8725 33.799 63.362 33.7846C63.7817 33.7739 64.1962 33.6899 64.5868 33.5363C64.9053 33.4143 65.2121 33.2636 65.5032 33.086M71.4212 22.5053C71.2436 22.3967 71.0388 22.3403 70.8306 22.3426C70.6196 22.341 70.4122 22.3973 70.231 22.5053C70.0524 22.6099 69.9024 22.757 69.7945 22.9336C69.6857 23.1113 69.6293 23.3162 69.6318 23.5245C69.6298 23.7355 69.6861 23.943 69.7945 24.1241C69.8992 24.3034 70.0502 24.4513 70.2316 24.5523C70.4145 24.6553 70.6212 24.7085 70.8311 24.7065C71.0383 24.7091 71.2424 24.6559 71.4218 24.5523C71.5983 24.4506 71.7435 24.3025 71.8418 24.1241C71.9446 23.9411 71.9978 23.7344 71.9959 23.5245C71.9983 23.3173 71.9451 23.1132 71.8418 22.9336C71.7402 22.7577 71.5957 22.6104 71.4218 22.5053M69.923 35.0014H71.6705V26.094L69.923 26.3509V35.0014ZM82.6163 30.5306C82.6377 31.3882 82.4403 32.2372 82.0428 32.9975C81.676 33.678 81.1195 34.2372 80.4409 34.6074C79.7141 34.9945 78.9003 35.1891 78.077 35.1727C77.2905 35.1896 76.5126 35.0069 75.8159 34.6417C75.1685 34.2916 74.6451 33.7502 74.317 33.0915C73.9517 32.3368 73.7726 31.5057 73.7946 30.6676C73.7731 29.8229 73.9645 28.9864 74.3513 28.2352C74.7072 27.5656 75.2483 27.0125 75.9101 26.6421C76.6308 26.2735 77.4282 26.0799 78.2377 26.0769C79.0471 26.0739 79.846 26.2617 80.5693 26.625C81.2166 26.9808 81.744 27.5202 82.0853 28.1752C82.4534 28.9047 82.6358 29.7137 82.6163 30.5306ZM80.8006 30.5648C80.8053 30.1345 80.7534 29.7055 80.6464 29.2887C80.5564 28.9324 80.3964 28.5975 80.1756 28.3037C79.9685 28.0335 79.6977 27.8187 79.3874 27.6785C79.033 27.5279 78.6504 27.4549 78.2654 27.4644C77.7722 27.4507 77.2844 27.569 76.8522 27.807C76.4481 28.0469 76.128 28.4058 75.9358 28.8347C75.7012 29.3804 75.59 29.9712 75.6103 30.5648C75.5917 31.175 75.7026 31.7822 75.9358 32.3463C76.1116 32.7877 76.4204 33.1634 76.8195 33.4212C77.2185 33.6791 77.688 33.8063 78.1626 33.7852C78.6427 33.7939 79.1162 33.6725 79.533 33.434C79.9477 33.1827 80.2739 32.8086 80.4663 32.3634C80.7063 31.7951 80.8206 31.1815 80.8006 30.5648Z" fill="#114F9D"/>
</svg>

<svg xmlns="http://www.w3.org/2000/svg" viewBox="0 0 83 41"><path fill="#0A2343" d="M0 17.997v-12h3.937v12H0Zm9.294-10.09 2.264 10.09H7.25l-2.704-12h2.417a2.276 2.276 0 0 1 1.513.55c.42.346.71.826.819 1.36Zm2.855 10.09v-12h3.938v12h-3.938Zm6.912-7.436a2.381 2.381 0 0 1-2.078-1.192 2.345 2.345 0 0 1-.322-1.208 2.301 2.301 0 0 1 .321-1.2 2.41 2.41 0 0 1 3.278-.862c.356.21.653.506.862.862.215.363.326.778.321 1.2a2.35 2.35 0 0 1-.321 1.208c-.207.36-.504.66-.862.87a2.301 2.301 0 0 1-1.2.322Zm2.99 7.436v-12h3.938v12h-3.937Zm8.923-5.442c.01.011.095.15.253.414s.364.602.617 1.014a309.436 309.436 0 0 1 1.597 2.62c.247.41.529.875.845 1.394H29.96c-.27-.44-.516-.837-.736-1.192-.22-.355-.453-.738-.7-1.15-.248-.41-.493-.81-.736-1.199a60.12 60.12 0 0 1-.625-1.022 18.04 18.04 0 0 0-.363-.592 1.747 1.747 0 0 1-.287-.845c.016-.29.11-.57.27-.811.067-.113.191-.313.371-.6a182.106 182.106 0 0 0 1.37-2.23l.7-1.159.736-1.2h4.326l-3.346 5.46a1.079 1.079 0 0 0-.17.54c.012.202.082.396.203.558Z"/><path fill="#114F9D" d="M8.026 30.24c.14.419.206.86.197 1.301a3.793 3.793 0 0 1-.352 1.722c-.227.454-.57.841-.993 1.122a4.36 4.36 0 0 1-1.49.616 8.41 8.41 0 0 1-1.825.189c-.274 0-.545-.012-.813-.034a12.975 12.975 0 0 1-.806-.095c-.28-.042-.557-.1-.83-.17a9.192 9.192 0 0 1-.891-.284L0 32.912c.274.102.563.202.865.3.303.097.614.18.934.248.319.068.639.123.959.163.307.039.616.059.925.06.318.002.636-.02.95-.07.258-.038.509-.113.746-.222a1.65 1.65 0 0 0 .548-.41c.151-.177.268-.38.342-.6a2.37 2.37 0 0 0 .12-.788 1.909 1.909 0 0 0-.128-.737 1.445 1.445 0 0 0-.351-.514 2.233 2.233 0 0 0-.54-.36 4.33 4.33 0 0 0-.71-.265 16.386 16.386 0 0 0-.857-.214c-.377-.08-.745-.177-1.105-.291a6.315 6.315 0 0 1-1.002-.411 3.301 3.301 0 0 1-.822-.6 2.476 2.476 0 0 1-.557-.865A3.323 3.323 0 0 1 .12 26.13a3.485 3.485 0 0 1 .317-1.542c.208-.43.52-.801.908-1.08a4.07 4.07 0 0 1 1.396-.633 7.274 7.274 0 0 1 1.798-.206c.297 0 .588.014.874.043.282.028.562.07.84.128.273.058.545.126.813.206.263.078.519.181.762.308l-.24 1.508a4.313 4.313 0 0 0-.676-.3 6.56 6.56 0 0 0-.763-.214 7.816 7.816 0 0 0-1.61-.171 6 6 0 0 0-.882.06 2.54 2.54 0 0 0-.71.205c-.198.092-.38.213-.54.36a1.305 1.305 0 0 0-.343.522 2.053 2.053 0 0 0-.111.703c-.006.23.032.46.111.676.071.185.186.349.334.48.158.137.334.252.523.342.22.104.449.188.685.248.257.069.534.137.83.206.389.08.765.177 1.13.291.358.11.704.251 1.037.42.318.16.608.371.857.625.253.264.446.58.565.925m9.927 3.666c.1-.013.197-.036.291-.068l-.188 1.147a1.37 1.37 0 0 1-.197.06c-.075.017-.157.037-.249.06a1.586 1.586 0 0 1-.282.043 5.405 5.405 0 0 1-.3.009 2.501 2.501 0 0 1-.977-.18 1.382 1.382 0 0 1-.668-.583 1.62 1.62 0 0 1-.185-.504 4.589 4.589 0 0 1-.337.359 3.34 3.34 0 0 1-1.079.685 3.95 3.95 0 0 1-1.447.24 3.056 3.056 0 0 1-1.517-.343 2.253 2.253 0 0 1-.907-.9 2.506 2.506 0 0 1-.3-1.207c-.002-.449.132-.888.385-1.259a2.851 2.851 0 0 1 1.174-.95 5.318 5.318 0 0 1 1.987-.446l2.002-.136.002-.43a3.24 3.24 0 0 0-.103-.864 1.364 1.364 0 0 0-.343-.608 1.499 1.499 0 0 0-.659-.36 3.844 3.844 0 0 0-1.036-.12c-.229 0-.46.009-.694.026a6.23 6.23 0 0 0-.711.094 9.86 9.86 0 0 0-1.559.428l.206-1.456a8.26 8.26 0 0 1 .899-.3c.33-.088.664-.154 1.002-.197a8.406 8.406 0 0 1 1.08-.068c.454-.005.908.04 1.353.137.363.077.713.21 1.036.394.278.16.52.375.711.633.188.265.328.56.41.874.096.358.142.727.138 1.097l-.034 3.528c-.037.315.03.634.188.908a.78.78 0 0 0 .668.274c.08 0 .16-.006.24-.017Zm-2.807-1.023.007-1.7h-1.5a5.212 5.212 0 0 0-1.336.137c-.28.06-.533.21-.719.428-.161.236-.24.52-.223.805-.007.237.053.471.171.676.12.194.296.346.505.437.257.11.535.162.814.154.245.001.488-.022.728-.068.232-.045.456-.12.668-.223a3.29 3.29 0 0 0 .6-.377c.103-.081.198-.171.286-.27M15.947 22h-1.85l-1.456 3.066h1.336L15.948 22Zm15.76 4.437a2.983 2.983 0 0 0-1.525-.36 4.008 4.008 0 0 0-1.354.231c-.44.158-.856.38-1.233.66-.213.157-.416.329-.608.513a2.147 2.147 0 0 0-.882-1.028 3.021 3.021 0 0 0-1.542-.36c-.458 0-.912.079-1.344.232a4.865 4.865 0 0 0-1.602.936v-1.167l-1.747.257V35h1.747v-6.515c.206-.135.42-.256.642-.362a4.42 4.42 0 0 1 .848-.3c.27-.066.545-.1.822-.103.255-.007.508.036.745.129.196.083.37.212.506.377.148.19.25.413.3.65.066.307.098.62.094.934v5.19h1.747v-5.55a6.901 6.901 0 0 0-.066-.98c.198-.13.403-.248.614-.356.267-.134.549-.238.84-.308a3.58 3.58 0 0 1 .838-.103c.252-.006.503.038.737.129.2.081.376.21.514.377.15.19.252.413.3.65.067.307.098.62.094.934v5.207h1.747v-5.567a4.97 4.97 0 0 0-.308-1.901 2.207 2.207 0 0 0-.925-1.096Zm5.318-3.932a1.109 1.109 0 0 0-.591-.162 1.153 1.153 0 0 0-.6.162 1.253 1.253 0 0 0-.437.429 1.175 1.175 0 0 0 .437 1.619c.183.102.39.155.6.153.207.003.411-.05.59-.154.177-.101.322-.25.42-.428.103-.183.157-.39.155-.6a1.155 1.155 0 0 0-.155-.59 1.206 1.206 0 0 0-.42-.429Zm-1.5 12.496h1.748v-8.907l-1.747.257V35Zm12.043-8.796a3.38 3.38 0 0 0-.908.394 4.47 4.47 0 0 0-.805.642c-.04.04-.08.086-.12.129v-1.276l-1.747.257V35h1.747V28.53a4.414 4.414 0 0 1 .934-.5c.177-.069.356-.129.54-.18a3.663 3.663 0 0 1 1.198-.129l.206-1.61a3.277 3.277 0 0 0-1.045.094m10.072 7.7c.1-.013.197-.036.291-.068l-.188 1.147c-.064.025-.13.045-.197.06l-.248.06a1.59 1.59 0 0 1-.283.043 5.372 5.372 0 0 1-.3.009 2.501 2.501 0 0 1-.976-.18 1.38 1.38 0 0 1-.668-.583 1.613 1.613 0 0 1-.186-.504 4.702 4.702 0 0 1-.337.359 3.346 3.346 0 0 1-1.079.685c-.463.17-.954.25-1.447.24a3.054 3.054 0 0 1-1.516-.343 2.251 2.251 0 0 1-.908-.9c-.2-.37-.303-.785-.3-1.207a2.21 2.21 0 0 1 .386-1.259 2.845 2.845 0 0 1 1.173-.95 5.316 5.316 0 0 1 1.987-.446l2.002-.136.002-.43a3.24 3.24 0 0 0-.103-.864 1.357 1.357 0 0 0-.343-.608 1.5 1.5 0 0 0-.66-.36 3.837 3.837 0 0 0-1.035-.12c-.229 0-.46.009-.694.026a6.23 6.23 0 0 0-.711.094 9.732 9.732 0 0 0-1.559.428l.206-1.456c.293-.117.594-.217.9-.3.328-.088.663-.154 1.001-.197a8.392 8.392 0 0 1 1.08-.068c.454-.005.908.04 1.353.137.363.077.713.21 1.036.394.278.16.52.375.71.633.19.265.329.56.412.874.095.358.14.727.137 1.097l-.034 3.528c-.037.315.03.634.188.908a.783.783 0 0 0 .669.274c.08 0 .16-.006.24-.017Zm-2.807-1.023.007-1.7h-1.5a5.208 5.208 0 0 0-1.335.137 1.122 1.122 0 0 0-.943 1.233 1.28 1.28 0 0 0 .172.676c.12.194.296.346.505.437.257.11.535.163.814.154.244.001.488-.022.728-.068.231-.045.456-.12.668-.223.213-.103.414-.23.6-.377.102-.081.198-.172.285-.27m10.669-10.555 1.746-.24V35h-1.42l-.216-.792a6.453 6.453 0 0 1-.385.261c-.37.232-.77.411-1.19.531a4.763 4.763 0 0 1-1.293.172 3.795 3.795 0 0 1-2.03-.523 3.398 3.398 0 0 1-1.302-1.481 5.278 5.278 0 0 1-.454-2.279 5.273 5.273 0 0 1 .6-2.612 4.185 4.185 0 0 1 3.716-2.201 5.902 5.902 0 0 1 2.176.394l.051.022v-4.167Zm0 10.76v-5.279c-.09-.033-.182-.068-.266-.095a5.199 5.199 0 0 0-1.619-.248 3.032 3.032 0 0 0-1.533.368c-.432.25-.776.627-.985 1.08a4.073 4.073 0 0 0-.343 1.772 4.285 4.285 0 0 0 .309 1.739c.177.43.49.79.89 1.028.43.233.916.348 1.405.334.42-.011.834-.095 1.225-.249.318-.122.625-.272.916-.45m5.918-10.58a1.109 1.109 0 0 0-.59-.163 1.154 1.154 0 0 0-.6.162 1.254 1.254 0 0 0-.436.429 1.106 1.106 0 0 0-.163.59c-.002.211.054.419.162.6a1.198 1.198 0 0 0 1.037.582c.207.003.411-.05.59-.154.177-.101.322-.25.42-.428.104-.183.157-.39.155-.6a1.158 1.158 0 0 0-.154-.59 1.204 1.204 0 0 0-.42-.429m-1.499 12.496h1.748v-8.907l-1.748.257V35Zm12.693-4.47a5.053 5.053 0 0 1-.573 2.467 3.99 3.99 0 0 1-1.602 1.61 4.824 4.824 0 0 1-2.364.565 4.655 4.655 0 0 1-2.261-.531 3.574 3.574 0 0 1-1.499-1.55 5.247 5.247 0 0 1-.522-2.424 5.034 5.034 0 0 1 .556-2.433 3.95 3.95 0 0 1 1.56-1.593 5.154 5.154 0 0 1 4.658-.017 3.742 3.742 0 0 1 1.516 1.55c.368.73.55 1.539.531 2.356Zm-1.815.034c.004-.43-.048-.86-.155-1.276a2.768 2.768 0 0 0-.47-.985 2.064 2.064 0 0 0-.789-.625 2.699 2.699 0 0 0-1.122-.215 2.77 2.77 0 0 0-1.413.343c-.404.24-.724.599-.916 1.028a4.032 4.032 0 0 0-.326 1.73c-.018.61.093 1.217.326 1.781a2.287 2.287 0 0 0 2.227 1.44c.48.008.953-.114 1.37-.352.415-.251.74-.625.933-1.07.24-.569.355-1.182.335-1.8Z"/></svg>
